polaris-icons/icons/new-icons/ThumbsDownMajor.svg

<svg width="20" height="20" viewBox="0 0 20 20" fill="none" xmlns="http://www.w3.org/2000/svg">
<path fill-rule="evenodd" clip-rule="evenodd" d="M13.7447 5.97429C12.2594 3.94891 9.86279 2.79652 7.35336 2.90108L6.74565 2.9264C5.35981 2.98415 4.17747 3.94757 3.84107 5.2932L3.2043 7.84028C2.6126 10.2071 4.40269 12.4998 6.84233 12.4998H7.38274C7.53174 12.4998 7.64766 12.6293 7.63121 12.7774L7.51837 13.793C7.32829 15.5037 8.66739 16.9998 10.3886 16.9998H10.8453C11.3045 16.9998 11.695 16.6648 11.7648 16.2109L11.9348 15.106C12.063 14.2726 12.7197 13.6224 13.5505 13.4998H15.25C16.2165 13.4998 17 12.7163 17 11.7498V8.24177C17 7.2797 16.2201 6.49979 15.258 6.49979H14.7817C14.3721 6.49979 13.9869 6.30463 13.7447 5.97429ZM7.4158 4.39978C9.42579 4.31603 11.3454 5.23907 12.5351 6.86133C12.6708 7.04644 12.8273 7.21195 13 7.35562V12.0816C11.6787 12.412 10.6634 13.5056 10.4522 14.8779L10.3566 15.4994C9.54488 15.4812 8.91902 14.7701 9.00919 13.9586L9.12203 12.943C9.23722 11.9064 8.42576 10.9998 7.38274 10.9998H6.84233C5.37855 10.9998 4.30449 9.62416 4.65951 8.20408L5.29628 5.657C5.47138 4.95661 6.08678 4.45516 6.8081 4.4251L7.4158 4.39978ZM14.5 11.9998H15.25C15.3881 11.9998 15.5 11.8879 15.5 11.7498V8.24177C15.5 8.10813 15.3917 7.99979 15.258 7.99979H14.7817C14.6871 7.99979 14.5931 7.99498 14.5 7.98553V11.9998Z" fill="#4A4A4A"/>
</svg>

<svg viewBox="0 0 20 20" xmlns="http://www.w3.org/2000/svg"><path fill-rule="evenodd" d="M13.745 5.974a7.537 7.537 0 0 0-6.392-3.073l-.607.025a3.128 3.128 0 0 0-2.905 2.367l-.637 2.547a3.75 3.75 0 0 0 3.638 4.66h.54a.25.25 0 0 1 .25.277l-.114 1.016a2.888 2.888 0 0 0 2.87 3.207h.457a.93.93 0 0 0 .92-.79l.17-1.104a1.918 1.918 0 0 1 1.615-1.606h1.7a1.75 1.75 0 0 0 1.75-1.75v-3.508c0-.962-.78-1.742-1.742-1.742h-.476c-.41 0-.795-.195-1.037-.526Zm-6.33-1.574c2.01-.084 3.93.84 5.12 2.461.136.185.292.351.465.495v4.726a3.419 3.419 0 0 0-2.548 2.796l-.095.621a1.388 1.388 0 0 1-1.348-1.54l.113-1.016a1.75 1.75 0 0 0-1.74-1.943h-.54a2.25 2.25 0 0 1-2.182-2.796l.636-2.547c.175-.7.79-1.202 1.512-1.232l.608-.025Zm7.085 7.6h.75a.25.25 0 0 0 .25-.25v-3.508a.242.242 0 0 0-.242-.242h-.476a2.79 2.79 0 0 1-.282-.014v4.014Z" fill="#5C5F62"/></svg>
